X:1
T:Mace, 87.87 D
T:Mace, 87.87 D
T:Ira David Sankey, 1879
T:Public Domain Courtesy of the Cyber Hymnal™
C:Ira David Sankey, 1879
Z:Public Domain
Z:Courtesy of the Cyber Hymnal™
%%score ( 1 2 ) ( 3 4 )
L:1/8
Q:1/4=113
M:9/8
K:G
V:1 treble 
V:2 treble 
V:3 bass 
V:4 bass 
V:1
 ([B,D][^A,^C])[B,D] | [DG]3 [DG]3 ([FA][EG])[FA] | [DB]3 [Gd]3 (de)[Gd] | [GB]3 [DG]3 (GF)[=CG] | %4
 [DA]6 ([B,D][^A,^C])[B,D] | [B,G]3 [DG]3 (AG)[DA] | [DB]3 [Gd]3 (de)[Gd] | %7
 [DB]3 [EG]3 [GB]2 [FA] | G6 ([DF][EG])[FA] | [FA]3 [Ac]3 (cd)[Fe] | [Gd]3 [GB]3 (dc)[GB] | %11
 [GB]3 [DG]3 (GF)[=CG] | [DA]6 ([B,D][^A,^C])[B,D] | [B,G]3 [DG]3 (AG)[DA] | [DB]3 [Gd]3 (de)[Gd] | %15
 [DB]3 [EG]3 [GB]2 [FA] | G6 |] %17
V:2
 x3 | x9 | x6 G2 x | x6 ^C2 x | x9 | x6 D2 x | x6 G2 x | x9 | G6 x3 | x6 F2 x | x6 G2 x | %11
 x6 ^C2 x | x9 | x6 D2 x | x6 G2 x | x9 | G6 |] %17
V:3
 G,2 G, | [G,B,]3 [G,B,]3 [D,D]2 [D,D] | [G,D]3 [G,B,]3 (B,C)[G,B,] | %3
 [G,D]3 [G,B,]3 [E,A,]2 [E,A,] | [D,F,]6 G,2 G, | G,3 [B,,G,]3 (F,E,)[D,F,] | %6
 G,3 [G,B,]3 (B,C)[G,B,] | G,3 [E,B,]3 [D,D]2 [D,C] | [G,,B,]6 [D,A,]2 [D,D] | %9
 [D,D]3 [D,D]3 [D,A,]2 [D,C] | [G,B,]3 [G,D]3 (B,E)[G,D] | [G,D]3 [G,B,]3 [E,A,]2 [E,A,] | %12
 [D,F,]6 G,2 G, | G,3 [B,,G,]3 (F,E,)[D,F,] | G,3 [G,B,]3 (B,C)[G,B,] | G,3 [E,B,]3 [D,D]2 [D,C] | %16
 [G,,B,]6 |] %17
V:4
 G,2 G, | x9 | x6 G,2 x | x9 | x6 G,2 G, | G,3 D,2 x4 | G,3 G,2 x4 | G,3 x6 | x9 | x9 | x6 G,2 x | %11
 x9 | x6 G,2 G, | G,3 D,2 x4 | G,3 G,2 x4 | G,3 x6 | x6 |] %17

